X:6
T:Sailor Don's
R:jig
C:Dougie MacDonald
O:20th century Cape Breton
D:A Miner
N:Bookings,Mechanicals etc.
N:..... Dougie MacDonald <dougie@cranfordpub.com>
N:More tunes and information <http://www.cranfordpub.com/dougie>
Z:This abc transcription is for personal use only,
Z:provided this notice remains attached.
Z:Used by permission of the composer.
Z:Paul Stewart Cranford 
Q:288
L:1/8
M:6/8
K:A
B|cAE F2 =G|FEF A2 B|cef ecB|c2 A BAB|!
cAE FEF|FAB A2 a|fec e2 c|Bce A2:|!
|:B|c2 d cBA|f=ge f2 b|aga fec|BcA FEF|!
Acd cBA| f=ge f2 a|fec e2 c|Bce A2:|!
